src/assets/duotone/Export3.svg

<svg width="24" height="24" viewBox="0 0 24 24"  xmlns="http://www.w3.org/2000/svg">
<path opacity="0.4" d="M16.8 9H7.2C4 9 2 11 2 14.2V16.79C2 20 4 22 7.2 22H16.79C19.99 22 21.99 20 21.99 16.8V14.2C22 11 20 9 16.8 9Z" />
<path d="M15.8798 5.56994L12.5298 2.21994C12.2398 1.92994 11.7598 1.92994 11.4698 2.21994L8.11984 5.56994C7.82984 5.85994 7.82984 6.33994 8.11984 6.62994C8.40984 6.91994 8.88984 6.91994 9.17984 6.62994L11.2498 4.55994V15.2499C11.2498 15.6599 11.5898 15.9999 11.9998 15.9999C12.4098 15.9999 12.7498 15.6599 12.7498 15.2499V4.55994L14.8198 6.62994C14.9698 6.77994 15.1598 6.84994 15.3498 6.84994C15.5398 6.84994 15.7298 6.77994 15.8798 6.62994C16.1798 6.33994 16.1798 5.86994 15.8798 5.56994Z" />
</svg>

<?xml version="1.0" encoding="UTF-8"?>
<svg width="24" height="24" viewBox="0 0 24 24" xmlns="http://www.w3.org/2000/svg">
 <path d="M16.8 9H7.2C4 9 2 11 2 14.2V16.79C2 20 4 22 7.2 22H16.79C19.99 22 21.99 20 21.99 16.8V14.2C22 11 20 9 16.8 9Z" opacity=".4"/>
 <path d="m15.88 5.5699-3.35-3.35c-0.29-0.29-0.77-0.29-1.06 0l-3.35 3.35c-0.29 0.29-0.29 0.77 0 1.06s0.77 0.29 1.06 0l2.07-2.07v10.69c0 0.41 0.34 0.75 0.75 0.75s0.75-0.34 0.75-0.75v-10.69l2.07 2.07c0.15 0.15 0.34 0.22 0.53 0.22s0.38-0.07 0.53-0.22c0.3-0.29 0.3-0.76 0-1.06z"/>
</svg>
